X:1
T:Bezeichnung standardisiert: Door hertog Willem;
T:Bezeichnung standardisiert: Door hertog Willem;
T:44 [Dantz in C nach Johann Friedrich Drey\sser, 1720] In anderer Quelle: Door Hertog Willem - Oude en nieuwe Hollantse Boeren Lietjes... 1713 (Anm. S. Wascher);
T:Urheber unbekannt Erstbeleg: 1713 (Datum in der schriftlichen Quelle)S:Handschrift "Dantz B\"uchlein", geschrieben von "Johann Friedrich Drey\sser" "1720", Bayerische Staatsbibliothek Mus.ms. 1578.
C:Urheber unbekannt
C:Erstbeleg: 1713 (Datum in der schriftlichen Quelle)S:Handschrift "Dantz B\"uchlein", geschrieben von "Johann Friedrich Drey\sser" "1720", Bayerische Staatsbibliothek Mus.ms. 1578.
L:1/8
M:2/2
K:C
V:1 treble 
V:1
 G2 | c2 d2 e2 c2 | gfga g2 d2 | e2 c2 d2 B2 | cBcd c2 G2 | c2 d2 e2 c2 | gfga g2 d2 | %7
 e2 c2 d2 B2 | c6 :: d2 | d2 B2 c2 d2 | edef e2 d2 | c2 B2 A2 dc | B2 G2 G4 | g2 e2 f2 g2 | %15
 abag f2 e2 | d2 e2 d3 c | c6 :| %18

